app/dist/common/images/lanxess-ag.svg

<svg height="18" viewBox="0 0 18 18" width="18" xmlns="http://www.w3.org/2000/svg"><path d="m0 0h18v18h-18z" fill="#f0f3fa"/><path d="m5 12.5h3v1.5h-3z" fill="#f11a29"/><path d="m14 4h-1.76l-1.24 2.94-1.24-2.94h-1.76l2.1 5-2.1 5h1.76l1.24-2.94 1.24 2.94h1.76l-2.1-5zm-9 0v8h3v-1.5h-1.5v-6.5z"/></svg>

<!-- by TradingView --><svg width="18" height="18" viewBox="0 0 18 18" xmlns="http://www.w3.org/2000/svg"><path fill="#F0F3FA" d="M0 0h18v18H0z"/><path d="M5 12.5h3V14H5v-1.5Z" fill="#F11A29"/><path d="M14 4h-1.76L11 6.94 9.76 4H8l2.1 5L8 14h1.76L11 11.06 12.24 14H14l-2.1-5L14 4ZM5 4v8h3v-1.5H6.5V4H5Z"/></svg>
